X: 10692
T: Down The Rushy Glen
R: polka
M: 2/4
K: Gmajor
|:D|G>A BG|A/B/A/G/ ED|GB d2|e/g/e/d/ BA|
GG/A/ BG|A>G ED|GB d/e/d/B/|AG G:|
|:B/c/|d2 dG/d/|g/a/g/f/ ed|G>A BG|A/B/A/G/ ED|
B/c/d de/f/|gf ed|GG/A/ BB/G/|AG G:|
|:d|g>f ed|gf e2|GG/A/ B2|AG E/G/E/D/|
[1 gg/f/ ed|g/a/g/f/ ed|G>A B/c/B/A/|G2 G:|
[2 GG/A/ BG|A/B/d ef|gB d/e/d/B/|AG G||

